X: 1
T: Polska fr\aan H\aaln\"as   [F]
N: Could it actually be from H\"alln\"as?
T: Kalles Hambo
T: Bondpolska fr\aan \"Overh\"arde
C: Trad.
R: polska, hambo
S: http://www.nyckelharpa.org/archive/written-music/american-allspel-list/ 2022/9/29
Z: 2022 John Chambers <jc:trillian.mit.edu>
N: Compacted via repeats and multiple endings [JC]
M: 3/4
L: 1/8
Q: 1/4=130
K: F
"^A"|: C/ |\
"F"(F>A) c2 F>F | "C"(E>G) c4 |\
[1,3 "C7"(E>G) c2 G>A | Bc/B/ "F"(AG) F>C :|\
[2,4 "C7"(E>G) (c>B) A>G | "F"(G<F) F7/2 :|
"^B"|: z/ |\
"Bb"(f>d) (B<f) e>d |"F" (c>f) A<d c2 | "C7"(C>E) (3(GEG) c>A |\
[1,3 "F"(F>A) (3(cAc) f>f :|[2,4 "F"(A<F) F7/2 :|
